Yaru++/apps/16/remmina.svg

<svg height="16.000032" width="16.000044" xmlns="http://www.w3.org/2000/svg"><g fill="#808080" transform="translate(-592.00004 -180)"><path d="m8 0a8 8 0 0 0 -8 8 8 8 0 0 0 1.1523438 4.119141l.7929687-.623047a7 7 0 0 1 -.9453125-3.496094 7 7 0 0 1 7-7 7 7 0 0 1 4.818359 1.9335938l.796875-.6289063a8 8 0 0 0 -5.615234-2.3046875zm6.847656 3.8808594-.792968.6230468a7 7 0 0 1 .945312 3.4960938 7 7 0 0 1 -7 7 7 7 0 0 1 -4.8183594-1.933594l-.796875.628906a8 8 0 0 0 5.6152344 2.304688 8 8 0 0 0 8-8 8 8 0 0 0 -1.152344-4.1191406z" transform="translate(592.00004 180)"/><path d="m596.00004 184.49609v1.30469l2.88281 1.19922-2.88281 1.55273v.89453l5-2.44726zm8 2.05664-5 2.44727 5 2.5039v-1.30468l-2.88281-1.19922 2.88281-1.55274z"/></g></svg>

<?xml version="1.0" encoding="UTF-8" standalone="no"?>
<svg
   xmlns:osb="http://www.openswatchbook.org/uri/2009/osb"
   xmlns:dc="http://purl.org/dc/elements/1.1/"
   xmlns:cc="http://creativecommons.org/ns#"
   xmlns:rdf="http://www.w3.org/1999/02/22-rdf-syntax-ns#"
   xmlns:svg="http://www.w3.org/2000/svg"
   xmlns="http://www.w3.org/2000/svg"
   xmlns:sodipodi="http://sodipodi.sourceforge.net/DTD/sodipodi-0.dtd"
   xmlns:inkscape="http://www.inkscape.org/namespaces/inkscape"
   height="16.000032"
   id="svg7384"
   version="1.1"
   width="16.000044"
   sodipodi:docname="remmina.svg"
   inkscape:version="0.92.4 (5da689c313, 2019-01-14)">
  <sodipodi:namedview
     pagecolor="#ffffff"
     bordercolor="#666666"
     borderopacity="1"
     objecttolerance="10"
     gridtolerance="10"
     guidetolerance="10"
     inkscape:pageopacity="0"
     inkscape:pageshadow="2"
     inkscape:window-width="1920"
     inkscape:window-height="1016"
     id="namedview847"
     showgrid="true"
     inkscape:zoom="52.4375"
     inkscape:cx="8"
     inkscape:cy="8.7628453"
     inkscape:window-x="0"
     inkscape:window-y="27"
     inkscape:window-maximized="1"
     inkscape:current-layer="g1833">
    <inkscape:grid
       type="xygrid"
       id="grid831" />
  </sodipodi:namedview>
  <metadata
     id="metadata20854">
    <rdf:RDF>
      <cc:Work
         rdf:about="">
        <dc:title></dc:title>
        <dc:format>image/svg+xml</dc:format>
        <dc:type
           rdf:resource="http://purl.org/dc/dcmitype/StillImage" />
      </cc:Work>
    </rdf:RDF>
  </metadata>
  <defs
     id="defs7386">
    <linearGradient
       id="linearGradient5606"
       osb:paint="solid">
      <stop
         id="stop5608"
         offset="0"
         style="stop-color:#000000;stop-opacity:1;" />
    </linearGradient>
    <linearGradient
       id="linearGradient4526"
       osb:paint="solid">
      <stop
         id="stop4528"
         offset="0"
         style="stop-color:#ffffff;stop-opacity:1;" />
    </linearGradient>
    <linearGradient
       id="linearGradient3600-4"
       osb:paint="gradient">
      <stop
         id="stop3602-7"
         offset="0"
         style="stop-color:#f4f4f4;stop-opacity:1" />
      <stop
         id="stop3604-6"
         offset="1"
         style="stop-color:#dbdbdb;stop-opacity:1" />
    </linearGradient>
  </defs>
  <g
     id="layer9"
     label="status"
     style="display:inline"
     transform="translate(-833.00024,187)" />
  <g
     id="layer2"
     style="display:inline"
     transform="translate(-592.00004,-180)" />
  <g
     id="layer4"
     style="display:inline"
     transform="translate(-592.00004,-180)" />
  <g
     id="g1812"
     style="display:inline"
     transform="translate(-592.00004,-180)" />
  <g
     id="g6217"
     style="display:inline"
     transform="translate(-592.00004,-180)" />
  <g
     id="layer3"
     style="display:inline"
     transform="translate(-592.00004,-180)" />
  <g
     id="g1833"
     style="display:inline"
     transform="translate(-592.00004,-180)">
    <path
       style="display:inline;opacity:1;fill:#808080;fill-opacity:1;stroke:none;stroke-width:4;stroke-linecap:round;stroke-linejoin:round;stroke-miterlimit:4;stroke-dasharray:none;stroke-dashoffset:0;stroke-opacity:1"
       d="M 8 0 A 8 8 0 0 0 0 8 A 8 8 0 0 0 1.1523438 12.119141 L 1.9453125 11.496094 A 7 7 0 0 1 1 8 A 7 7 0 0 1 8 1 A 7 7 0 0 1 12.818359 2.9335938 L 13.615234 2.3046875 A 8 8 0 0 0 8 0 z M 14.847656 3.8808594 L 14.054688 4.5039062 A 7 7 0 0 1 15 8 A 7 7 0 0 1 8 15 A 7 7 0 0 1 3.1816406 13.066406 L 2.3847656 13.695312 A 8 8 0 0 0 8 16 A 8 8 0 0 0 16 8 A 8 8 0 0 0 14.847656 3.8808594 z "
       transform="translate(592.00004,180)"
       id="path3006" />
    <path
       style="color:#000000;font-style:normal;font-variant:normal;font-weight:normal;font-stretch:normal;font-size:medium;line-height:normal;font-family:sans-serif;font-variant-ligatures:normal;font-variant-position:normal;font-variant-caps:normal;font-variant-numeric:normal;font-variant-alternates:normal;font-feature-settings:normal;text-indent:0;text-align:start;text-decoration:none;text-decoration-line:none;text-decoration-style:solid;text-decoration-color:#000000;letter-spacing:normal;word-spacing:normal;text-transform:none;writing-mode:lr-tb;direction:ltr;text-orientation:mixed;dominant-baseline:auto;baseline-shift:baseline;text-anchor:start;white-space:normal;shape-padding:0;clip-rule:nonzero;display:inline;overflow:visible;visibility:visible;opacity:1;isolation:auto;mix-blend-mode:normal;color-interpolation:sRGB;color-interpolation-filters:linearRGB;solid-color:#000000;solid-opacity:1;vector-effect:none;fill:#808080;fill-opacity:1;fill-rule:nonzero;stroke:none;stroke-width:0.99977112;stroke-linecap:round;stroke-linejoin:round;stroke-miterlimit:4;stroke-dasharray:none;stroke-dashoffset:0;stroke-opacity:1;color-rendering:auto;image-rendering:auto;shape-rendering:auto;text-rendering:auto;enable-background:accumulate"
       d="m 596.00004,184.49609 v 1.30469 l 2.88281,1.19922 -2.88281,1.55273 v 0.89453 l 5,-2.44726 z m 8,2.05664 -5,2.44727 5,2.5039 v -1.30468 L 601.11723,189 l 2.88281,-1.55274 z"
       id="path827"
       inkscape:connector-curvature="0"
       sodipodi:nodetypes="cccccccccccccc" />
  </g>
  <g
     id="layer1"
     style="display:inline"
     transform="translate(-592.00004,-180)" />
</svg>
